!!!!SEGMENT: Ser3015-Cest_a_grant_tort.krn
!!!id: Ser3015
!!!AGN: Chanson
!!!voices: 4
!!!COM: Claudin de Sermisy
!!!OTL: C'est a grant tort
**kern	**kern	**kern	**kern
*part4	*part3	*part2	*part1
*staff4	*staff3	*staff2	*staff1
*I"Bassus	*I"Tenor	*I"Altus	*I"Superius
*I'B	*I'T	*I'A	*I'S
*clefF4	*clefGv2	*clefG2	*clefG2
*k[]	*k[]	*k[]	*k[]
*C:	*C:	*C:	*C:
*M2/1	*M2/1	*M2/1	*M2/1
*met(C|)	*met(C|)	*met(C|)	*met(C|)
=1	=1	=1	=1
1.G	1G	1d	2.g
.	.	.	4a
.	1d	[1g	4b
.	.	.	4cc
2G	.	.	2dd
=2	=2	=2	=2
2E	1e	2g]	2g
2C	.	2g	2.cc
1G	1d	2g	.
.	.	.	8bL
.	.	.	8aJ
.	.	2d	2b
=3	=3	=3	=3
2r	1c	2.e	1cc
2C	.	.	.
.	.	4f	.
2E	1r	2g	2r
2F	.	2f	2a
=4	=4	=4	=4
2G	2d	2d	2b
2E	2e	2G	2cc
2D	2f	2A	2dd
[2G	[2g	[2B	2d
=5	=5	=5	=5
4G]	2g]	4B]	4d
4F	.	4c	4e
4D	1f	2d	4f
4E	.	.	4g
2F	.	2c	4a
.	.	.	4b
2C	2e	[2g	4cc
.	.	.	4a
=6	=6	=6	=6
2G	2.d	2g]	2b
2D	.	2f	2.a
.	4c	.	.
1E	2B	2e	.
.	.	.	4g
.	2G	2c	[2g
=7	=7	=7	=7
1D	1A	1d	2g]
.	.	.	2f#i
[1G	2G	[1B	1g
.	2d	.	.
=8	=8	=8	=8
1G]	2d	1B]	2r
.	2d	.	2dd
2r	1B	2d	2dd
2G	.	2d	2dd
=9	=9	=9	=9
2G	1d	2d	2b
2G	.	2B	2b
2C	2e	2G	2cc
2F	2f	2A	2dd
=10	=10	=10	=10
2.E	2.g	2G	2.ee
.	.	1g	.
4F	4f	.	8ddL
.	.	.	8ccJ
2G	2d	.	4b
.	.	.	4a
2D	[2f	[2a	[2dd
=11	=11	=11	=11
1A	4f]	2a]	4dd]
.	4e	.	4cc
.	2c	2f	1cc
1G	1d	1g	.
.	.	.	2b
=12	=12	=12	=12
2r	1c	2e	1cc
2c	.	2g	.
2.c	2r	2a	2r
.	2e	[2g	2cc
4B	.	.	.
=13	=13	=13	=13
1A	2e	2g]	2cc
.	2c	2f	2cc
1G	1d	2g	1b
.	.	2g	.
=14	=14	=14	=14
2r	2c	2e	2g
2C	2c	2e	2g
2F	2c	1f	2a
2D	2d	.	2b
=15	=15	=15	=15
2C	2.e	2g	2.cc
1F	.	2f	.
.	4d	.	4b
.	2c	4f	2a
.	.	4e	.
2G	2B	4d	2g
.	.	4c	.
=16	=16	=16	=16
4D	2.A	1d	1f
4E	.	.	.
4F	.	.	.
4G	4B	.	.
4A	1c	2r	1e
4B	.	.	.
[2c	.	2e	.
=17	=17	=17	=17
2c]	1G	2e	2r
2B	.	2d	2g
1c	1r	2.e	2.g
.	.	4f	4a
=18	=18	=18	=18
1G	2r	0g	4b
.	.	.	4cc
.	2B	.	2dd
2E	1c	.	2g
2C	.	.	[2cc
=19	=19	=19	=19
1G	1d	2r	4cc]
.	.	.	8bL
.	.	.	8aJ
.	.	2d	2b
2r	1c	2.e	1cc
2C	.	.	.
.	.	4f	.
=20	=20	=20	=20
2E	1r	2g	2r
2F	.	2f	2a
2G	2d	2d	2b
2E	2e	2G	2cc
=21	=21	=21	=21
2D	2f	2A	2dd
2.G	1g	2.B	2d
.	.	.	4d
4F	.	4c	4e
4D	[2f	2d	4f
4E	.	.	4g
=22	=22	=22	=22
2F	2f]	2c	4a
.	.	.	4b
2C	2e	1g	4cc
.	.	.	4a
2G	2.d	.	2b
2D	.	2f	[2a
.	4c	.	.
=23	=23	=23	=23
1E	2B	2e	4a]
.	.	.	4g
.	2G	2c	1g
1D	1A	1d	.
.	.	.	2f#i
=24	=24	=24	=24
2r	1G	0B	1g
2G	.	.	.
2.G	1r	.	2r
.	.	.	2g
4A	.	.	.
=25	=25	=25	=25
2B	1r	2r	2.g
2c	.	2e	.
.	.	.	4a
2G	2r	2e	4b
.	.	.	4cc
2G	2B	2d	2dd
=26	=26	=26	=26
2E	1c	2.e	2g
2C	.	.	2.cc
.	.	4f	.
1G	1d	2g	.
.	.	.	8bL
.	.	.	8aJ
.	.	2d	2b
=27	=27	=27	=27
2r	1c	2.e	1cc
2C	.	.	.
.	.	4f	.
2E	1r	2g	2r
2F	.	2f	2a
=28	=28	=28	=28
2G	2d	2d	2b
2E	2e	2G	2cc
2D	2f	2A	2dd
[2G	[2g	[2B	2d
=29	=29	=29	=29
4G]	2g]	4B]	4d
4F	.	4c	4e
4D	1f	2d	4f
4E	.	.	4g
2F	.	2c	4a
.	.	.	4b
2C	2e	[2g	4cc
.	.	.	4a
=30	=30	=30	=30
2G	2.d	2g]	2b
2D	.	2f	2.a
.	4c	.	.
1E	2B	2e	.
.	.	.	4g
.	2G	2c	[2g
=31	=31	=31	=31
1D	1A	1d	2g]
.	.	.	2f#i
[1Gl	[1Gl	[1Bl	[1gl
=32	=32	=32	=32
00G]	00G]	00B]	00g]
==	==	==	==
*-	*-	*-	*-
!!!system-decoration: [*]
!!!RDF**kern: i = editorial accidental
!!!RDF**kern: l = terminal long
!!!ENC: Benjamin Ory
!!!END: 2025/2/25
!!!EED: Benjamin Ory
!!!EEV: 2025/02/25
!!!YEC: Copyright 2025 Benjamin Ory, All Rights Reserved
!!!ONB: Translated from MusicXML on 2025/02/25